packages/client-app/static/animations/inbox-zero/airstrip/airstrip.hyperesources/runway.svg

<svg xmlns="http://www.w3.org/2000/svg" preserveAspectRatio="xMidYMid" width="530.125" height="388.75" viewBox="0 0 530.125 388.75"><defs><style>.cls-1 { fill: #686d6f; stroke: #5d6365; stroke-width: 6px; fill-rule: evenodd; }</style></defs><path d="M524.191 76.647l-249.39 249.39-.197.241-56.568 56.568c-3.906 3.906-10.237 3.906-14.142 0l-.022-.022-56.569-56.568-141.399-141.4c-3.906-3.905-3.906-10.236 0-14.142l56.568-56.568c3.905-3.906 10.237-3.906 14.142 0l134.329 134.328 242.537-242.538c3.905-3.905 10.237-3.905 14.142 0l56.569 56.569c3.905 3.905 3.905 10.237 0 14.142z" class="cls-1"/></svg>

<svg xmlns="http://www.w3.org/2000/svg" xmlns:xlink="http://www.w3.org/1999/xlink" preserveAspectRatio="xMidYMid" width="530.125" height="388.75" viewBox="0 0 530.125 388.75">
  <defs>
    <style>
      .cls-1 {
        fill: #686d6f;
        stroke: #5d6365;
        stroke-width: 6px;
        fill-rule: evenodd;
      }
    </style>
  </defs>
  <path d="M524.191,76.647 L274.801,326.037 C274.729,326.113 274.679,326.203 274.604,326.278 L218.036,382.846 C214.130,386.752 207.799,386.752 203.894,382.846 L203.872,382.824 C203.872,382.824 203.872,382.824 203.872,382.824 L147.303,326.256 C147.303,326.256 147.303,326.256 147.303,326.256 L5.904,184.856 C1.998,180.951 1.998,174.620 5.904,170.714 L62.472,114.146 C66.377,110.240 72.709,110.240 76.614,114.146 L210.943,248.474 L453.480,5.936 C457.385,2.031 463.717,2.031 467.622,5.936 L524.191,62.505 C528.096,66.410 528.096,72.742 524.191,76.647 Z" class="cls-1"/>
</svg>
